icon-themes/breeze_svg/cmd/lc_dataprovider.svg

<svg viewBox="0 0 24 24" xmlns="http://www.w3.org/2000/svg"><path d="m5 4v7h1v-6h8v3 1h4v10h-2v1h2 1v-10.59375-1.40625l-4-4h-1-8zm-1 8v1 3 1 3 1h1 10v-1-7-1h-10zm1 1h4v3h-4zm5 0h4v3h-4zm-5 4h4v3h-4zm5 0h4v3h-4z" fill="#4d4d4d"/></svg>

<svg viewBox="0 0 24 24" xmlns="http://www.w3.org/2000/svg">
  <path
     style="fill:#4d4d4d"
     d="M 5 4 L 5 11 L 6 11 L 6 5 L 14 5 L 14 8 L 14 9 L 18 9 L 18 19 L 16 19 L 16 20 L 18 20 L 19 20 L 19 9.40625 L 19 8 L 19 8 L 15 4 L 15 4 L 15 4 L 14 4 L 6 4 L 5 4 z M 4 12 L 4 13 L 4 16 L 4 17 L 4 20 L 4 21 L 5 21 L 15 21 L 15 20 L 15 13 L 15 12 L 5 12 L 4 12 z M 5 13 L 9 13 L 9 16 L 5 16 L 5 13 z M 10 13 L 14 13 L 14 16 L 10 16 L 10 13 z M 5 17 L 9 17 L 9 20 L 5 20 L 5 17 z M 10 17 L 14 17 L 14 20 L 10 20 L 10 17 z "
     />
</svg>
